X: 1
T: Oj ti mom\vce Ohridjan\vce
%T: Ој ти момче охриѓанче
C: I.Terziev / K/Petrovski
R: gankino
O: Makedonija, Srbija
S: https://www.scribd.com/doc/311892859/Oj-ti-momce-ohrigjance
S: https://www.youtube.com/watch?v=B5SnSSBlgfc
S: https://www.youtube.com/watch?v=zhXC9vP8FI4
S: https://www.youtube.com/watch?v=0mUe6UM54Ho
M: 11/8
Q: 2/4 2/4 3/8 2/4 2/4
K: Fm
P: Instr:
[| "Fm"EFF2 F2E F2FE | F2G2 A2B A2GF | EFF2 F2E F2FE | F2G2 A2B c2de \
|: fef2 c3  cABc | B4   AGF GAB2 | fef2 c3  cdcB | e4   dcB cBGE :|
P: Vocal:
|: GA |\
"Fm"F2-FE "C7"FGA "Bb"B2-BA | "Bbm"B2BA "Db"G2{AG}F "Fm"F4 |\
"F "cABc "Bbm"B3 "Fm"FGF2 | "Db"GAGF "Bb"B3 F2 :|
|: "Eb7"AB |\
"Ab"c4 "Db"{e}f2e "Eb7"eddc | "Ab"cABc "Gdim"{A}B3 "Fm"AGF2 |\
"Db"B4 AGF "Fm"G2F2 | "Bbm"{A}B2F2 "Fm"F3 F2 :|
